X:92
T:I Furnished Up My House (h'pipe) 
T:Humors of Tullycrine
B:CRE1.205 (Chuir Me Feisteas ar mo Theachsa)
F:file ID: cre.1/092i_furn
Q:150
L:1/8
M:C|
R:hornpipe
K:Am
A|EAAB cBcd|eaag (3e^fe dB|c2 Ac B2 G2|Bd (3d^cd AGED|
EAAB cBcd|eaag e2 dB|c2 Ac BAGB|A2 ~A2 A3:|
|:d|ea (3aga aged|ea (3aga a2 a^f|g2 g2 aged|eg^fa gedB|
A3B cBcd|eaag e2 dB|c2 Ac BAGB|A2 ~A2 A3:|

%%%

